src/topics/icons/workboard.svg

<?xml version="1.0" encoding="UTF-8" standalone="no"?>
<svg width="256px" height="256px" viewBox="0 0 256 256" version="1.1" xmlns="http://www.w3.org/2000/svg" xmlns:xlink="http://www.w3.org/1999/xlink" preserveAspectRatio="xMidYMid">
	<g>
		<path d="M256,128 C256,198.692 198.692,256 128,256 C57.308,256 0,198.692 0,128 C0,57.308 57.308,0 128,0 C198.692,0 256,57.308 256,128" fill="#51BBD6"></path>
		<path d="M101.9803,110.0758 L101.9803,75.4138 L157.7963,94.1468 L101.9803,110.0758 Z M157.7963,164.7908 L101.9803,181.7018 L101.9803,146.8228 L157.7963,164.7908 Z M194.7283,81.6958 L101.9803,48.6668 L101.9803,32.5948 L76.3803,32.5948 L76.3803,223.5458 L101.9803,223.5458 L101.9803,208.6848 L194.7283,180.3188 L194.7283,154.7188 L126.3213,129.1188 L194.7283,107.7158 L194.7283,81.6958 Z" fill="#FFFFFF"></path>
	</g>
</svg>

<svg height="256" preserveAspectRatio="xMidYMid" viewBox="0 0 256 256" width="256" xmlns="http://www.w3.org/2000/svg"><path d="m256 128c0 70.692-57.308 128-128 128s-128-57.308-128-128 57.308-128 128-128 128 57.308 128 128" fill="#51bbd6"/><path d="m101.9803 110.0758v-34.662l55.816 18.733zm55.816 54.715-55.816 16.911v-34.879zm36.932-83.095-92.748-33.029v-16.072h-25.6v190.951h25.6v-14.861l92.748-28.366v-25.6l-68.407-25.6 68.407-21.403z" fill="#fff"/></svg>
